symbols/web/screenshot/materialsymbolsoutlined/screenshot_wght200fill1_20px.svg

<svg xmlns="http://www.w3.org/2000/svg" height="20" width="20"><path d="M7.104 8.812V5.979h2.834v.792H7.896v2.041Zm2.958 5.209v-.792h2.042v-2.041h.792v2.833Zm-4.145 1.187h8.166V4.792H5.917Zm.521 3.125q-.626 0-1.032-.406T5 16.896V3.104q0-.625.406-1.031.406-.406 1.032-.406h7.124q.626 0 1.032.406T15 3.104v13.792q0 .625-.406 1.031-.406.406-1.032.406Z"/></svg>

<svg xmlns="http://www.w3.org/2000/svg" height="20" width="20"><path d="M7.104 8.812V5.979H9.938V6.771H7.896V8.812ZM10.062 14.021V13.229H12.104V11.188H12.896V14.021ZM5.917 15.208H14.083V4.792H5.917ZM6.438 18.333Q5.812 18.333 5.406 17.927Q5 17.521 5 16.896V3.104Q5 2.479 5.406 2.073Q5.812 1.667 6.438 1.667H13.562Q14.188 1.667 14.594 2.073Q15 2.479 15 3.104V16.896Q15 17.521 14.594 17.927Q14.188 18.333 13.562 18.333Z"/></svg>
